!!!OTL: 577. Scherz- und Schelmenliedchen.
!!!ARE: Europa, Mitteleuropa, Deutschland
!!!SCT: B0577
!!!YEM: Copyright 1995, estate of Helmut Schaffrath.
**kern	**text
*ICvox	*
*Ivox	*
*clefG2	*
*M4/4	*
*met(c)	*
*k[]	*
*C:	*
!LO:TX:a:t=Heiter.	!
{8eL	Der
8fJ	.
=1	=1
4g	Kai-
4cc	-ſer
4a	ſtreit't
4cc	für's
=2	=2
4.g	Län-
8f	-de-
4e}	-lein,
{4g	der
=3	=3
4g	Kö-
8fL	-nig
8eJ	.
4f	für
4a	ſein
=4	=4
4a	Geld,
4g	ſein
4g}	Geld,
{8eL	und
8fJ	.
=5	=5
4g	ich
4cc	ſtreit'
4a	für
4cc	mein
=6	=6
4.g	Schä-
8f	-tʒe-
4e}	-lein,
{4ee	das
=7	=7
4ee	iſt
4dd	der
4a	Lauf
4b	der
=8	=8
2cc	Welt.
4r}	.
{8e	Ra-
8f	-di-
=9	=9
!LO:TX:a:t=Trallern.	!
4g	-rul-
4cc	-la-
4a	-rul-
4cc	-la
=10	=10
4.g	rul-
8f	-la-
4e}	-la,
{8g	ra-
8g	-di-
=11	=11
4g	-rul-
8fL	-la-
8eJ	.
4f	-la,
8a	ra-
8a	-di-
=12	=12
4a	-rul-
8gL	-la-
8fJ	.
4g}	-la,
{8e	ra-
8f	-di-
=13	=13
4g	-rul-
4cc	-la-
4a	-rul-
4cc	-la
=14	=14
4.g	rul-
8f	-la-
4e}	-la,
{8ee	ra-
8ee	-di-
=15	=15
4ee	-rul-
4dd	-la-
4ff	-rul-
4b	-la
=16	=16
2cc	he!
4r}	.
==	==
!!!AGN: Soldaten -, Scherz -, Trink - Lied
!!!GTL: Soldatenlieder
!!!ONB: ESAC (Essen Associative Code) Database: BOEHME
!!!AMT: simple quadruple
!!!AIN: vox
!!!EED: Helmut Schaffrath
!!!EEV: 1.0
!!Mel. neuern Urſprungs.
!!@@COMMENT:"Dieſes neuere Vierlied, von Soldaten geſungen, iſt eine Variante von dem älteren Huſaren-
!!liede: "Jn meines Vaters Garten" (Liederh. III. Nr. 1422), darin 3. Str. heißt: "Der Kaiſer ſtreit't
!!für Ländeln" rc. Auch die Mel. iſt nur eine Umbildung der alten dort."
!!@@END:
!!!URL-scan: https://archive.org/details/BoehmeVtLieder1895/page/n457/mode/2up
!!!ENC: Anna Maria Matuszewska
!!!EEV: 2024/12/07
*-	*-
